X:80
T:Ashleys (sic) Hornpipe
O:No 80 Wm Clarke MS  Feltwell, Norfolk
N:aka Astley's Hp
N:Bar 11 last 2 notes are qvrs in MS
I:abc2nwc
M:2/2
L:1/8
K:G
GABc edcB|agfe e2d2|BdBG cecA|BdEA GFED|
GABc edcB|agfe d3c|BdBG cecA|G2F2G4:|
|:defg fafd|gbge fafd|defg"^*"(a2c2)|BdBG FAFD|
BdBG cecA|fafd gbge|dgfe dcBA|G2F2G4:|

